X:1
T: Invercauld's Strathspey
C:
R:Strathspey
Q: 128
K:D
M:4/4
L:1/16
|:FE|D3F AF3 A3B df3|D3F A3d e2E2 E3F|D3F AF3 A3B de3|fa3 eg3 f2d2 d2FE|
D3F AF3 A3B df3|D3F A3d e2E2 E3F|D3F AF3 A3B de3|fa3 eg3 f2d2 d2fg|
a2d2 gfed gab2 a3g|f2d2 fgaf g2e2 e2fg|a2d2 f2d2 g3b a3g|fa3 e3g f2d2 d2fg|
a3d gfed gab2 a3g|fa3 d3f g2e2 e2fg|af3 ge3 fd3 ec3|dB3 A3G F2D2 D2:|
